X:1
T:Title
%%score { ( 1 3 ) | ( 2 4 ) }
L:1/8
M:3/4
K:Eb
V:1 treble nm="Grand Piano"
V:3 treble 
V:2 bass 
V:4 bass 
V:1
 z2 z2[Q:1/4=100] [EG]>[FA] | [GB]2 [Ge]>[Ge] [Ge]G | c B3 G>G | [DF]3 [EG] [DB]>[FA] |[M:2/4] G4 | %5
[M:1/4] G>A |[M:3/4] B2 [Ge]>[Ge] [Ge][EG] | [Ec] B3 E>E | %8
[M:27/32] [DF]/4-[DF]/4-[DF]/4-[DF]/4-[DF]/4-[DF]/4-[DF]/4-[DF]/4-[DF]/-<[DF]/[Dc]/-<[Dc]/c/4-c/4-c/4-c/4-c/-<c/-[D-B-c]/[DB]/4 | %9
[M:3/4] E6 |[M:1/4] (3:2:2[DF]2 [EG] |[M:3/4] [FA]3- [FA]/4 z/4 z/ (3:2:2[GB]2 [DF] | %12
 (7:8:8[FA]3/4[EG]3/4-[EG]3/2-[EG]3/8[DF]3/8-[DF]-[DF]/8[EG]3/8 | z2 z [FA]- [FA]/4 z/4 z/ z | %14
[M:2/4] (3:2:2[FA]3/2[EG]3/2- [EG]2 |[M:1/4] (3:2:2[EG]2 [FA] | %16
[M:3/4] (7:8:8[GB]3/2-[GB]3/8[Ge]-[Ge]/8[Ge]3/8[Ge]-[Ge]/8G3/4 | %17
 (7:8:8c3/4B3/4-B3/2-B3/8E3/8-E-E/8E3/8 | %18
[M:27/32] D/4-D/4-D/4-D/4-D/4-D/4-D/4-D/4-D/-<D/[Dc]/-<[Dc]/c/4-c/4-c/4-c/4-c/-<c/-[D-B-c]/4[DB]/ | %19
[M:3/4] E6 |] %20
V:2
 z2 z2 [E,B,]>[E,B,] | [E,E]2 [E,B,]2 [E,B,][E,B,E] | [E,A,E] [E,G,E]3 [E,B,E]>[E,B,E] | %3
 [B,,B,]3 [B,,B,] [B,,F,]>[B,,B,] |[M:2/4] [E,B,E]4 |[M:1/4] [E,B,E]>[F,B,D] | %6
[M:3/4] [G,B,E]2 [E,B,]2 [E,B,][E,B,] | [A,,A,] [E,G,E]3 [E,G,]>[E,G,] | %8
[M:27/32] [B,,B,]/4-[B,,B,]/4-[B,,B,]/4-[B,,B,]/4-[B,,B,]/4-[B,,B,]/4-[B,,B,]/4-[B,,B,]/4-[B,,B,]/-<[B,,B,]/[B,,A,]/-<[B,,A,]/[B,,A,]/4-[B,,A,]/4-[B,,A,]/4-[B,,A,]/4-[B,,A,]/-<[B,,A,]/[B,,A,]3/4 | %9
[M:3/4] [E,G,]6 |[M:1/4] (3:2:2[B,,B,]2 [B,,B,] | %11
[M:3/4] [B,,B,]3- [B,,B,]/4 z/4 z/ (3:2:2[B,,B,]2 [B,,B,] | %12
 (7:8:8[E,B,]3/4[E,B,]3/4-[E,B,]3/2-[E,B,]3/8[B,,B,]3/8-[B,,B,]-[B,,B,]/8[B,,B,]3/8 | %13
 [B,,B,]3- [B,,B,]/4 z/4 z/ (3:2:2[B,,B,]2 [B,,B,] |[M:2/4] (3:2:2[E,B,]3/2[E,B,]3/2- [E,B,]2 | %15
[M:1/4] (3:2:2[E,B,]2 [E,B,] | %16
[M:3/4] (7:8:8[E,B,]3/2-[E,B,]3/8[E,B,]3/8-[E,B,]-[E,B,]/8[E,B,]-[E,B,]/8[E,B,E]3/4 | %17
 (7:8:8[E,A,E]3/4[E,G,E]3/4-[E,G,E]3/2-[E,G,E]3/8[E,G,]3/8-[E,G,]-[E,G,]/8[E,G,]3/8 | %18
[M:27/32] [B,,A,]/4-[B,,A,]/4-[B,,A,]/4-[B,,A,]/4-[B,,A,]/4-[B,,A,]/4-[B,,A,]/4-[B,,A,]/4-[B,,A,]/-<[B,,A,]/[B,,A,]/-<[B,,A,]/[B,,A,]/4-[B,,A,]/4-[B,,A,]/4-[B,,A,]/4-[B,,A,]/-<[B,,A,]/[B,,A,]3/4 | %19
[M:3/4] [E,G,]6 |] %20
V:3
 x6 | x6 | x6 | x6 |[M:2/4] x4 |[M:1/4] x2 |[M:3/4] x6 | x6 | %8
[M:27/32] z/4 z/4 z/4 z/4 z/4 z/4 z/4 z/4 z/4 z/4 z/4 z/4 z/4 z/4 z/ D/4-D/4-D/4-D/4-D/-<D/ z/4 z/ | %9
[M:3/4] x6 |[M:1/4] x2 |[M:3/4] z2 z [DF]- [DF]/4 z/4 z/ z | x6 | %13
 [FA]3- [FA]/4 z/4 z/ (3:2:2[DB]2 [FA] |[M:2/4] x4 |[M:1/4] x2 |[M:3/4] x6 | x6 | %18
[M:27/32] F/4-F/4-F/4-F/4-F/4-F/4-F/4-F/4-F/4-F/-<F/ z/4 z/ D/4-D/4-D/4-D/4-D/-<D/ z/4 z/ | %19
[M:3/4] x6 |] %20
V:4
 x6 | x6 | x6 | x6 |[M:2/4] x4 |[M:1/4] x2 |[M:3/4] x6 | x6 |[M:27/32] x27/4 |[M:3/4] x6 | %10
[M:1/4] x2 |[M:3/4] z2 z [B,,B,]- [B,,B,]/4 z/4 z/ z | x6 | z2 z [B,,B,]- [B,,B,]/4 z/4 z/ z | %14
[M:2/4] x4 |[M:1/4] x2 |[M:3/4] x6 | x6 |[M:27/32] x27/4 |[M:3/4] x6 |] %20

